X: 231
T: George Clavey L.C.C.
C: Bert Murray
R: jig
B: Bert Murray's "Bon Accord Collection" 1999 p.23
Z: 2011 John Chambers <jc:trillian.mit.edu>
M: 6/8
L: 1/8
K: Bm
|:vB>cB (f2e) | f>ea f>ec | [AA2]>A[AA] c>Bc | (c<eA) c>BA |\
   B>cB (f2e) | f>ea f>ec | A>ca f>ec | B>cA B3 :|
|: d>ef (B2f) | d>ef (f<af) | e>ce A>ce | (f<af) e>cA |\
   d>ef (f<af) | e>ce A>ce | A>ca f>ec | B>cA B3 :|
|: [BB2]>B[BB] f>ef | B>BB f>ef | e>ee A>AA | (c<ea) e>cA |\
   [BB2]>B[BB] f>ef | e>cA B>cB | A>ca f>ec | B>cA B3 :|
|: [dd2]>e[ff] B>ff | d>ef B>ff | e<ee A>AA | (c<ea) e>cA |\
   [dd2]>e[ff] B>ff | d>ef B>ff | A>ca f>ec | B>cA B3 :|

%%sep 2 1 500

